X:1
T:Sitivit anima mea - Palestrina
T:James Gibb editions
T:#
%%score [ 1 { 2 | 3 } 4 ]
L:1/8
Q:1/4=200
M:none
K:F
V:1 treble nm="Alto" snm="A"
V:2 treble-8 nm="Tenor I" snm="T"
V:3 treble-8 
V:4 bass nm="Bass" snm="B"
V:1
"^G. P. da Palestrina\n(1526-94)""^Sitivit anima mea" z8 F8 | A8 c4 c4- | c2 c2 c4 B8 | A12 G4 | %4
w: Si-|ti- vit a\-|* ni- ma me-|a ad|
 A4 B4 c8- | c4 A4 G8 | G8 z4 (F2 G2 | A2 B2 c4) A4 F4 | G8 F8- | F4 E4 F4 G4 | A4 F4 G8 | A8 z8 | %12
w: De- um fon\-|* tem vi-|vum, a\- *|* * * ni- ma|me- a|* ad De- um|fon- tem vi-|vum,|
 z4 G4 A4 B4 | c4 A4 G8 | F4 (G6 F2 F4- | F4 E2 D2 E8 | F8) z4 F4- | F4 G4 A6 B2 | c4 A8 B4 | %19
w: ad De- um|fon- tem vi-|vum, vi\- * *||vum: quan\-|* do ve- ni-|am, et ap-|
 c4 (A6 G2 A2 F2 | G8 F4) D4- | D4 E4 F6 G2 | A4 F4 G4 A4 | F8 E4 G4 | A4 c6 B2 A4 | %25
w: pa- re\- * * *|* bo, quan\-|* do ve- ni-|am, et ap- pa-|re- bo an-|te fa- ci- em|
 (G4 F2 E2 F2 E2 E2 DC | D8) C4 E4 | F4 A6 G2 F4 | (E2 F2 G2 E2 F8) | F16- | F16 | z4 F4 A4 A4 | %32
w: De\- * * * * * * *|* i, an-|te fa- ci- em|De\- * * * *|i?||Fu- e- runt|
 c8 G8- | G8 z8 | z16 | d12 c4 | (c6 B2 A4 G4) | F8 E8 | A16 | G4 G4 E4 F4 | (G6 FE D8) | %41
w: mi- hi|||la- cry-|mae * * *|me- ae|pa-|nes di- e ac|no\- * * *|
 E4 G8 A4- | A2 A2 A4 B8 | A4 F4 G6 G2 | A8 z8 | z4 d6 c2 B4 | A4 G4 (F4 G4- | G2 F2 F8 E4) | F16 | %49
w: cte, dum di\-|* ci- tur mi-|hi quo- ti- di-|e:|U- bi est|De- us tu\- *||us?|
 z16 | z16 | z4 G4 A6 A2 | A8 B8 | A8 F8 | G4 A4 D4 d4- | d2 c2 B4 A4 G4 | %56
w: ||dum di- ci-|tur mi-|hi quo-|ti- di- e: u\-|* bi est De- us|
[Q:1/4=197] (F4[Q:1/4=193] G6[Q:1/4=189] F2[Q:1/4=186] F4- | %57
w: tu\- * * *|
[Q:1/4=182] F4[Q:1/4=179] E2[Q:1/4=177] D2[Q:1/4=173] E8) |[Q:1/4=170] F16 |] %59
w: |us?|
V:2
 c8 d8 | f4 f6 f2 f4 | e8 d8- | d4 c4 d4 e4 | f4 d4 c2 B2 A2 G2 | F4 f8 e2 d2 | e8 f4 d4 | %7
w: Si- ti-|vit a- ni- ma|me- a|* ad De- um|fon- tem vi\- * * *||* vum, a-|
 c4 (A2 B2 c2 A2 d4- | d2 c2 c4) d8 | G8 z8 | c8 d8 | f4 f6 f2 f4 | e8 d8 | z4 c4 d4 e4 | %14
w: ni- ma * * * *|* * * me-|a,|si- ti-|vit a- ni- ma|me- a|ad De- um|
 (f4 e2 d2 c4) B4 | c16 | A4 B8 c4 | d6 e2 f4 d4 | e4 f4 d8 | (c6 d2 e4) f4- | f4 e4 (f6 e2 | %21
w: fon\- * * * tem|vi-|vum: quan- do|ven- ni- am, et|ap- pa- re-|bo, * * quan\-|* do ve\- *|
 d4 c2 B2 A4) d4 | c4 d4 c4 c4 | F8 G8 | z4 c4 e4 f4 | e4 (d6 c2 c4- | c4 B4) (A4 G4 | F6 G2) A8 | %28
w: * * * * ni-|am, et ap- pa-|re- bo|an- te fa-|ci- em * *|* * De\- *|* * i,|
 z4 c4 d4 f4- | f2 e2 d4 c8 | d4 B4 d4 d4 | f8 c8- | c8 _e8- | e4 d4 (d8- | d4 c4 B4 (A4-) | %35
w: an- te fa\-|* ci- em De-|i? Fu- e- runt|mi- hi|* la\-|* cry- mae|* * * me\-|
 A4 G4) A8 | z8 F8- | F8 G4 c4 | (c2 B2 A2 G2 F4) f4 | e4 d6 c2 c4- | c4 =B2 A2 B8 | c4 e8 f4- | %42
w: * * ae|pa\-|* nes di-|e * * * * ac|no\- * * *||cte, dum di\-|
 f2 f2 f4 f8 | f4 c4 d4 e4 | f4 d4 c6 c2 | d8 z4 f4- | f2 e2 d4 c4 B4 | (c4 d8 c2 B2 | A6 G2) F8 | %49
w: * ci- tur mi-|hi quo- ti- di-|e, quo- ti- di-|e: U\-|* bi est De- us|tu\- * * *|* * us?|
 z4 d6 c2 B4 | A4 G4 (A4 B4 | G8) F4 c4 | f6 f2 f8 | f8 c4 d4 | c4 c4 (f6 e2 | d8) z4 d4- | %56
w: u- bi est|De- us tu\- *|* us? dum|di- ci- tur|mi- hi quo-|ti- di- e: *|* u\-|
 d2 d2 c4 c4 d4 | c16 | c16 |] %59
w: * bi est De- us|tu-|us?|
V:3
 z16 | z16 | z16 | z16 | z8 F8 | A8 c4 c4- | c2 c2 c4 B8 | A16 | z4 G4 A4 B4 | c8 B8 | %10
w: ||||Si-|ti- vit a\-|* ni- ma me-|a|ad De- um|fon- tem|
 A2 B2 c2 A2 B2 c2 d4- | d2 c2 c8 =B4 | c8 z4 G4 | A6 A2 B4 c4 | (A4 G4 A4 G2 F2 | G16 | F16) | %17
w: vi\- * * * * * *||vum, ad|De- um fon- tem|vi\- * * * *||vum:|
 z16 | z4 F8 G4 | A6 B2 c4 A4 | B4 c4 A4 (B4- | B4 A2 G2 F4) B4 | A8 G4 (c4- | c2 =BA B4) c8- | %24
w: |quan- do|ve- ni- am, et|ap- pa- re- bo,|* * * * et|ap- pa- re\-|* * * * bo|
 c8 z4 F4 | G4 B6 c2 A4 | G8 c8 | z8 F8 | G8 B6 B2 | A4 (B6 AG A4) | B16 | z8 z4 F4 | A4 A4 c8 | %33
w: * an-|te fa- ci- em|De- i,|an-|te fa- ci-|em De\- * * *|i?|Fu-|e- runt mi-|
 B4 B8 A4 | (A6 G2 F4 E4) | D8 E8 | A16 | B8 c6 B2 | A2 G2 F2 G2 A2 B2 c4- | c4 =B4 c8 | d8 G8 | %41
w: hi la- cry-|mae * * *|me- ae|pa-|nes di\- *||* e ac|no- cte,|
 z4 G4 c6 c2 | c8 d8 | c4 A4 B4 c4 | F4 F4 G4 A4 | B8 z4 d4- | d2 c2 B4 A4 G4 | (A4 B4 G8) | %48
w: dum di- ci-|tur mi-|hi quo- ti- di-|e, quo- ti- di-|e: U\-|* bi est De- us|tu\- * *|
 F8 z4 d4- | d2 c2 B4 A4 G4 | (F4 G6 F2 F4- | F4 E4) F4 A4 | d6 d2 d8 | c8 A4 B4 | B4 A4 B8 | %55
w: us? u\-|* bi est De- us|tu\- * * *|* * us? dum|di- ci- tur|mi- hi quo-|ti- di- e:|
 z4 d6 c2 B4 | A4 G4 (A4 B4 | G16) | A16 |] %59
w: u- bi est|De- us tu\- *||us?|
V:4
 z16 | z16 | z16 | z16 | z16 | z16 | C,8 D,8 | F,4 F,6 F,2 F,4 | E,8 D,8 | C,8 D,4 E,4 | %10
w: ||||||Si- ti-|vit a- ni- ma|me- a|ad De- um|
 F,4 A,4 (G,8 | F,6 E,2 D,8) | C,8 z8 | z8 z4 C,4 | D,4 E,4 F,4 D,4 | C,16 | F,,4 B,,8 A,,4 | %17
w: fon- tem vi\-||vum,|ad|De- um fon- tem|vi-|vum: quan- do|
 B,,4 G,,4 D,8 | z16 | z16 | z8 z4 B,,4- | B,,4 C,4 D,6 E,2 | F,4 D,4 E,4 F,4 | D,8 (C,6 B,,2 | %24
w: ve- ni- am,|||quan\-|* do ve- ni-|am, et ap- pa-|re- bo *|
 A,,8 z8) | z16 | z8 z4 C,4 | D,4 F,6 E,2 D,4 | C,8 (B,,2 C,2 D,2 E,2 | F,16 | z8) B,,8 | %31
w: ||an-|te fa- ci- em|De- i? * * *||Fu-|
 D,4 D,4 F,8 | F,8 z8 | G,12 F,4 | (F,6 E,2 D,4 C,4) | B,,8 A,,8- | A,,8 D,8- | D,8 C,8 | F,16 | %39
w: e- runt mi-|hi|la- cry-|mae * * *|me- ae|* pa\-|* nes|di-|
 G,8 A,8 | G,16 | C,4 C,8 F,4- | F,2 F,2 F,4 B,,8 | F,8 z8 | z4 D,4 _E,4 F,4 | B,,16 | z16 | %47
w: e ac|no-|cte, dum di\-|* ci- tur mi-|hi|quo- ti- di-|e:||
 z4 B,,4 B,,4 C,4 | D,4 D,6 C,2 B,,4 | A,,4 G,,4 F,,4 G,,4 | D,4 _E,4 (D,4 B,,4) | C,8 z4 F,4 | %52
w: quo- ti- di-|e: U- bi est|De- us tu- us,|De- us tu\- *|us? dum|
 D,6 D,2 B,,8 | F,8 F,4 D,4 | _E,4 F,4 B,,4 B,4- | B,2 A,2 G,4 ^F,4 G,4 | D,4 E,4 F,4 B,,4 | C,16 | %58
w: di- ci- tur|mi- hi quo-|ti- di- e: u\-|* bi est De- us|tu- us, De us|tu-|
 F,,16 |] %59
w: us?|

